64x64/apps/Pithos.svg

<svg xmlns="http://www.w3.org/2000/svg" width="64" height="64" version="1.1">
 <path style="opacity:0.2" d="m 59.999127,33.157092 a 27.999565,27.999565 0 1 0 -55.9982535,0 27.999565,27.999565 0 0 0 55.9982535,0"/>
 <path style="fill:#4f4f4f" d="m 59.999127,32.1571 a 27.999565,27.999565 0 1 0 -55.9982535,0 27.999565,27.999565 0 0 0 55.9982535,0"/>
 <path style="opacity:0.2" d="M 11,33 C 11,44.579479 20.42052,54 32.000002,54 43.579481,54 53,44.579479 53,33 53,21.42052 43.579481,12 32.000002,12 20.42052,12 11,21.42052 11,33 Z"/>
 <path style="fill:#f4f4f7" d="M 11,32 C 11,43.579479 20.42052,53 32.000002,53 43.579481,53 53,43.579479 53,32 53,20.42052 43.579481,11 32.000002,11 20.42052,11 11,20.42052 11,32 Z"/>
 <path style="fill:#366adb" d="m 32,17.466694 0,15.261759 c -1.345739,-0.476141 -2.698156,-0.725645 -4.199935,-0.727989 -5.412306,0 -9.799847,3.133957 -9.799847,6.999891 0,3.865934 4.387541,6.999891 9.799847,6.999891 5.412306,0 10.199842,-3.133957 10.199842,-6.999891 l 0,-16.999734 c 0,0 2.818336,2.432481 3.768941,4.955137 0.485882,1.289406 0.484445,2.60237 -0.631998,3.626114 -0.906512,0.519986 -1.203761,1.323663 -1.044514,2.023403 0.241826,1.062613 1.53443,1.888098 3.330416,1.123812 2.698508,-1.40694 3.576015,-3.929235 3.576015,-6.029204 0,-6.299902 -7.998876,-11.699817 -13.598789,-11.699817 C 32,16.000066 32,17.466694 32,17.466694 Z"/>
 <path style="opacity:0.1;fill:#f4f4f7" d="M 31.339844 4.0078125 A 27.999565 27.999565 0 0 0 4 32.15625 A 27.999565 27.999565 0 0 0 4.015625 32.417969 A 27.999565 27.999565 0 0 1 31.339844 5.0078125 A 27.999565 27.999565 0 0 1 59.980469 32.712891 A 27.999565 27.999565 0 0 0 60 32.15625 A 27.999565 27.999565 0 0 0 31.339844 4.0078125 z"/>
</svg>

<svg xmlns="http://www.w3.org/2000/svg" width="64" height="64"><path style="opacity:.2" d="M60 33.157a28 28 0 1 0-56 0 28 28 0 0 0 56 0"/><path style="fill:#4f4f4f" d="M60 32.157a28 28 0 1 0-56 0 28 28 0 0 0 56 0"/><path style="opacity:.2" d="M11 33c0 11.58 9.42 21 21 21s21-9.42 21-21-9.42-21-21-21-21 9.42-21 21z"/><path style="fill:#f4f4f7" d="M11 32c0 11.58 9.42 21 21 21s21-9.42 21-21-9.42-21-21-21-21 9.42-21 21z"/><path style="fill:#366adb" d="M32 17.467v15.261A12.363 12.363 0 0 0 27.8 32c-5.412 0-9.8 3.134-9.8 7s4.388 7 9.8 7c5.412 0 10.2-3.134 10.2-7V22s2.818 2.433 3.769 4.956c.486 1.29.484 2.602-.632 3.626-.907.52-1.204 1.324-1.045 2.023.242 1.063 1.535 1.888 3.33 1.124C46.123 32.322 47 29.8 47 27.7 46.999 21.4 38.999 16 33.4 16 32 16 32 17.467 32 17.467z"/><path style="opacity:.1;fill:#f4f4f7" d="M31.34 4.008A28 28 0 0 0 4 32.156a28 28 0 0 0 .016.262A28 28 0 0 1 31.34 5.008a28 28 0 0 1 28.64 27.705 28 28 0 0 0 .02-.557A28 28 0 0 0 31.34 4.008z"/></svg>
